packages/synapse-interface/assets/icons/neth.svg

<svg fill="none" height="48" viewBox="0 0 48 48" width="48" xmlns="http://www.w3.org/2000/svg" xmlns:xlink="http://www.w3.org/1999/xlink"><linearGradient id="a" gradientUnits="userSpaceOnUse" x1="0" x2="48" y1="0" y2="48"><stop offset="0" stop-color="#f0f"/><stop offset="1" stop-color="#7344f3"/></linearGradient><clipPath id="b"><rect height="48" rx="24" width="48"/></clipPath><g clip-path="url(#b)"><circle cx="24" cy="24" fill="url(#a)" r="24"/><circle cx="24" cy="24" fill="#101018" r="22"/><path clip-rule="evenodd" d="m24.0024 6.00044c.1327-.00651.2617.05883.3339.17548l11.0679 17.87948c.053.0857.069.1892.0442.2868s-.0881.181-.1755.231l-11.068 6.3334c-.0626.0358-.1329.052-.2025.0486-.0696.0034-.14-.0128-.2026-.0486l-11.0679-6.3334c-.0874-.05-.1508-.1334-.1755-.231-.0248-.0976-.0088-.2011.0442-.2868l11.0679-17.87948c.0722-.11665.2012-.18199.3339-.17548zm11.2351 20.13346c.118.1297.1293.3242.0271.4666l-10.9424 15.2447c-.0747.1041-.1961.1604-.3198.1544-.1237.006-.2451-.0503-.3198-.1544l-10.9425-15.2447c-.1022-.1424-.0909-.3369.0272-.4666.118-.1296.3106-.159.462-.0705l10.7731 6.3 10.773-6.3c.1514-.0885.344-.0591.4621.0705z" fill="#1b1b29" fill-rule="evenodd"/><path d="m23.6129 40.4744-9.2511-12.8885 9.2511 5.41z" fill="#d68fff"/><path d="m24.3919 40.4744v-7.4785l9.2511-5.41z" fill="#f655f6"/><path d="m23.6129 29.9439-9.8782-5.6526 9.8782-4.4234z" fill="#9975ff"/><path d="m24.3918 29.9439v-10.076l9.8783 4.4234z" fill="#f655f6"/><path d="m23.613 19.0542-9.7439 4.3633 9.7439-15.74074z" fill="#d68fff"/><path d="m24.3919 19.0542v-11.37744l9.7439 15.74074z" fill="#ac8fff"/></g></svg>

<svg width="48" height="48" viewBox="0 0 48 48" fill="none" xmlns="http://www.w3.org/2000/svg">
<g clip-path="url(#clip0_1275_26271)">
<circle cx="24" cy="24" r="24" fill="url(#paint0_linear_1275_26271)"/>
<circle cx="24" cy="24" r="22" fill="#101018"/>
<path fill-rule="evenodd" clip-rule="evenodd" d="M24.0024 6.00044C24.1351 5.99393 24.2641 6.05927 24.3363 6.17592L35.4042 24.0554C35.4572 24.1411 35.4732 24.2446 35.4484 24.3422C35.4236 24.4398 35.3603 24.5232 35.2729 24.5732L24.2049 30.9066C24.1423 30.9424 24.072 30.9586 24.0024 30.9552C23.9328 30.9586 23.8624 30.9424 23.7998 30.9066L12.7319 24.5732C12.6445 24.5232 12.5811 24.4398 12.5564 24.3422C12.5316 24.2446 12.5476 24.1411 12.6006 24.0554L23.6685 6.17592C23.7407 6.05927 23.8697 5.99393 24.0024 6.00044ZM35.2375 26.1339C35.3555 26.2636 35.3668 26.4581 35.2646 26.6005L24.3222 41.8452C24.2475 41.9493 24.1261 42.0056 24.0024 41.9996C23.8787 42.0056 23.7573 41.9493 23.6826 41.8452L12.7401 26.6005C12.6379 26.4581 12.6492 26.2636 12.7673 26.1339C12.8853 26.0043 13.0779 25.9749 13.2293 26.0634L24.0024 32.3634L34.7754 26.0634C34.9268 25.9749 35.1194 26.0043 35.2375 26.1339Z" fill="#1B1B29"/>
<path d="M23.6129 40.4744L14.3618 27.5859L23.6129 32.9959V40.4744Z" fill="#D68FFF"/>
<path d="M24.3919 40.4744V32.9959L33.643 27.5859L24.3919 40.4744Z" fill="#F655F6"/>
<path d="M23.6129 29.9439L13.7347 24.2913L23.6129 19.8679V29.9439Z" fill="#9975FF"/>
<path d="M24.3918 29.9439V19.8679L34.2701 24.2913L24.3918 29.9439Z" fill="#F655F6"/>
<path d="M23.613 19.0542L13.8691 23.4175L23.613 7.67676V19.0542Z" fill="#D68FFF"/>
<path d="M24.3919 19.0542V7.67676L34.1358 23.4175L24.3919 19.0542Z" fill="#AC8FFF"/>
</g>
<defs>
<linearGradient id="paint0_linear_1275_26271" x1="0" y1="0" x2="48" y2="48" gradientUnits="userSpaceOnUse">
<stop stop-color="#FF00FF"/>
<stop offset="1" stop-color="#7344F3"/>
</linearGradient>
<clipPath id="clip0_1275_26271">
<rect width="48" height="48" rx="24" fill="white"/>
</clipPath>
</defs>
</svg>
